X:1
T:Buckshot
L:1/8
M:4/4
I:linebreak $
K:A
V:1 treble+8
V:1
 EF AB c2 |:"A" [ce]4 [ce]4- | [ce]f =gf ec BA |"A"  [Ec]4 [Ec]4- | [Ec] [Ec]4 B A2 |"E gliss" F2 =F2 E4-  |$
  E2 CC C2 B,2 |1"A" A,8- | A,2 EF AB c2 :|2 "A"A,6 F2 | "A7" =G8 |$
|:"D" DE FF AA BA | =c2 B2 A2 F2 |"A"  EF AB ce fe | =g2 f2 e2 c2 |"E" ef ga gf ef |$
 gf ed cB AB |1"A" A2 AC BA FE |  A2 AB "A7"A=G FE |2 "A" A2 Ac BA FE | A2 EF AB c2|]
